X:1
T:Isaac Watts, 1706 Come, Lord Jesus 88. 88. (L. M.)
T:G Major Oliver Holden, 1800
T:Desire of Nations No copyright. Treble-Tenor-Bass from Plain Psalmody , 1800; Counter by B. C. Johnston, 2015..
%%score [ 1 2 3 4 ]
L:1/8
M:4/4
K:G
V:1 treble nm="Treble" snm="Tr."
V:2 treble nm="Counter" snm="C."
V:3 treble-8 nm="Tenor" snm="T."
V:4 bass nm="Bass" snm="B."
V:1
 B4 B2 B2 | G2 B2 c2 B2 | A6 A2 | G2 A2 d2 e2 | d4 c4 | B8 | B4 A2 c2 | (c2 A2) (B2 G2) | %8
w: ||||||||
 (B2 A2) G4 | F6 d2 | d2 c2 B2 A2 | G4 F4 | G8 | z8 | z8 | G4 B2 d2 | B6 c2 | (d2 c2) (B2 A2) | %18
w: |* And|make the cry- stal|moun- tains|flow.|||Hark! How Thy|saints u-|nite * their *|
 B6 A2 | B3 c d2 d2 | (e2 d2) (c2 B2) | A6 z2 | z8 | z8 | z8 | z4 z2 B2 | (G2 F2) (G2 A2) | B6 B2 | %28
w: cries, And|pray and wait the|gen- * eral *|doom;||||Come,|Thou, * the *|soul of|
 (c2 B2) (c2 d2) | B6 A2 | (G2 B2) (d2 B2) | g4 BABc | d4 c4 | B8 |] %34
w: all * our *|joys, *|||||
V:2
 D4 D2 D2 | D2 E2 A2 G2 | (F3 G A2) A2 | G2 F2 D2 E2 | G4 E4 | D8 | G4 F2 D2 | D4 (E2 G2) | %8
w: 1.~Ye heav'n- ly|gates, loose all your|chains;~ _ _ Let|the e- ter- nal|pil- lars|bow;|Blest Sav- ior,|cleave the *|
 (G2 E2) D4 | D6 z2 | z8 | z8 | z8 | z8 | z8 | z8 | G4 E2 D2 | D2 E2 G2 A2 | G6 z2 | z8 | z8 | %21
w: star- * ry|plains,|||||||Hark! How Thy|saints u- nite their|cries,|||
 z4 z2 G2 | (D2 F2) (G2 A2) | B6 G2 | (G2 F2) (F2 E2) | D6 z2 | z8 | z8 | z8 | z4 z2 A2 | %30
w: ||||||||Thou,|
 G4 (G2 D2) | G4 GAGE | D4 A4 | G8 |] %34
w: the de- *|sire of~ _ _ _|na- tions,|come.|
V:3
 G4 D2 G2 | B2 d2 A2 G2 | (F3 E D2) D2 | E2 F2 G2 c2 | B4 A4 | G8 | d4 F2 A2 | (A2 F2) (G2 B2) | %8
w: ||||||||
 (d2 c2) B4 | A6 G2 | F2 A2 d2 c2 | B4 A4 | B8 | z8 | G4 B2 d2 | B6 c2 | (d2 c2) (B2 A2) | %17
w: |* And|make the cry- stal|moun- tains|flow.||Hark! How Thy|saints u-|nite * their *|
 (B2 A2 G2 F2 | G6) z2 | z8 | z8 | z4 z2 G2 | (B2 A2) (B2 c2) | B6 d2 | (e2 d2) (d2 c2) | B6 G2 | %26
w: cries,~ _ _ _|_|||Come,|Thou, * the *|soul of|all * our *|joys, Come,|
 (B2 A2) (B2 c2) | d6 d2 | (e2 d2) (e2 g2) | d6 c2 | (B2 G2) (B2 d2) | (e4 ge) dc | B4 A4 | G8 |] %34
w: Thou, * the *|soul of|all * our *|joys, *|||||
V:4
 G,4 G,2 G,2 | G,2 E,2 D,2 G,,2 | D,6 D,2 | G,2 F,2 E,2 C,2 | D,4 D,4 | G,,8 | G,4 D,2 D,2 | %7
w: |||||||
 D,4 B,,4 | G,,4 G,,4 | D,6 D,2 | D,2 D,2 B,,2 C,2 | D,4 D,4 | G,8 | G,,4 B,,2 D,2 | G,6 D2 | %15
w: ||||||Hark! How Thy|saints u-|
 (D2 C2) (B,2 A,2) | G,6 D,2 | D,4 D,4 | G,6 D,2 | G,3 A, B,2 B,2 | (C2 B,2) (A,2 G,2) | D,6 G,2 | %22
w: nite * their *|cries, u-|nite their|cries, And|pray and wait the|gen- * eral *|doom; *|
 (G,2 F,2) (G,2 A,2) | G,6 B,2 | (C2 B,2) (B,2 A,2) | G,6 G,2 | G,4 G,4 | G,6 G,2 | C,4 C,4 | %29
w: |||||||
 G,6 D,2 | G,4 G,4 | C4 G,4 | D,4 D,4 | G,8 |] %34
w: |||||

